icons/swagger-dark.svg

<svg width="256px" height="256px" viewBox="0 0 256 256" version="1.1" xmlns="http://www.w3.org/2000/svg" xmlns:xlink="http://www.w3.org/1999/xlink">
    <g id="Page-1" stroke="none" stroke-width="1" fill="none" fill-rule="evenodd">
        <g id="swagger-dark" fill-rule="nonzero">
            <path d="M196,0 L60,0 C26.8629,0 0,26.8629 0,60 L0,196 C0,229.137 26.8629,256 60,256 L196,256 C229.137,256 256,229.137 256,196 L256,60 C256,26.8629 229.137,0 196,0 Z" id="Path" fill="#282828"></path>
            <g id="Group" transform="translate(23.2419, 23.2442)">
                <g transform="translate(0, -0)" fill="#558139" id="Path">
                    <path d="M104.756984,209.511664 C46.9947529,209.511664 0,162.520839 0,104.755832 C0,46.990825 46.9947529,1.13686838e-13 104.756984,1.13686838e-13 C162.519214,1.13686838e-13 209.513967,46.9952226 209.513967,104.758031 C209.513967,162.520839 162.519214,209.511664 104.756984,209.511664 Z"></path>
                </g>
                <path d="M64.9966146,70.3312437 C64.6577974,74.0810775 65.1220209,77.95795 64.8712082,81.7493999 C64.5741931,85.5430402 64.1077695,89.292874 63.3465308,93.0427077 C62.2882771,98.393668 58.9441074,102.439195 54.3326734,105.810103 C63.3069288,111.625412 64.3211803,120.640783 64.9130103,129.785384 C65.2100254,134.715802 65.0824189,139.687836 65.5906447,144.574448 C65.971264,148.365898 67.4519392,149.336211 71.390139,149.46106 C72.9984206,149.502676 74.6463042,149.46106 76.5119989,149.46106 L76.5119989,161.174909 C64.8734083,163.154962 55.2655207,159.869477 52.8938004,150.052447 C52.1303616,146.471268 51.6221359,142.804667 51.4549274,139.096449 C51.1997144,135.17796 51.6221359,131.259472 51.3273209,127.340983 C50.4802779,116.595256 49.083207,112.972461 38.7580831,112.466496 L38.7580831,99.1099037 C39.5193217,98.9412488 40.2387582,98.8142101 40.9999968,98.7309778 C46.6718847,98.4352841 49.083207,96.7071189 50.3108693,91.1458876 C50.9048995,88.0290573 51.2437167,84.8684206 51.369123,81.6661677 C51.7937446,75.5573555 51.624336,69.3215046 52.6803896,63.2543086 C54.1610647,54.5324406 59.5799397,50.3182582 68.5959972,49.8122935 C71.1349261,49.6852548 73.7178571,49.8122935 76.6374053,49.8122935 L76.6374053,61.7802209 C75.409743,61.8656435 74.3514893,62.0321081 73.2514335,62.0321081 C65.9294619,61.7780306 65.5466425,64.2640477 64.9966146,70.3312437 Z M79.0905298,98.0563581 L78.9211212,98.0563581 C74.6881064,97.8460871 71.0491217,101.131572 70.8357109,105.345755 C70.6245002,109.601553 73.9246676,113.226538 78.1576824,113.434619 L78.6659082,113.434619 C82.8571209,113.688697 86.4521033,110.484253 86.7073163,106.313878 L86.7073163,105.893335 C86.7931207,101.637537 83.3653467,98.1417808 79.0905298,98.0563581 Z M105.628276,98.0563581 C101.522868,97.9293194 98.0928941,101.131572 97.9674877,105.1771 C97.9674877,105.431177 97.9674877,105.641448 98.0114899,105.893335 C98.0114899,110.486444 101.142249,113.436809 105.883489,113.436809 C110.538926,113.436809 113.460674,110.403212 113.460674,105.641448 C113.416672,101.04834 110.325515,98.014742 105.628276,98.0563581 Z M132.801855,98.0563581 C128.485236,97.9709355 124.885854,101.38565 124.760447,105.683064 C124.760447,109.980479 128.230023,113.434619 132.546642,113.434619 L132.632447,113.434619 C136.526644,114.109239 140.462644,110.359405 140.717857,105.851719 C140.926868,101.679153 137.118474,98.0563581 132.801855,98.0563581 Z M170.089348,98.6871713 C165.178698,98.4769002 162.723374,96.8341576 161.497912,92.1972429 C160.734473,89.2490675 160.270249,86.171663 160.100841,83.138065 C159.762024,77.4914111 159.803826,71.8031411 159.423206,66.1564872 C158.534361,52.7582786 148.801067,48.081938 134.66315,50.3971099 L134.66315,62.0277275 C136.905064,62.0277275 138.640952,62.0277275 140.37684,62.0693436 C143.382192,62.1109598 145.668108,63.249928 145.962923,66.5792196 C146.259938,69.6128176 146.259938,72.6880318 146.556953,75.7654362 C147.150984,81.8764387 147.487601,88.0684831 148.545854,94.094063 C149.478702,99.0660973 152.906476,102.774315 157.179092,105.807913 C149.689912,110.821563 147.487601,117.983921 147.106981,126.03336 C146.895771,131.552975 146.768164,137.114206 146.473349,142.677628 C146.218136,147.732894 144.442646,149.375637 139.320786,149.502676 C137.881913,149.544292 136.484842,149.671331 134.876561,149.756753 L134.876561,161.680874 C137.881913,161.680874 140.632053,161.849529 143.382192,161.680874 C151.931826,161.174909 157.095488,157.04615 158.789574,148.78644 C159.509011,144.234948 159.931432,139.64403 160.059039,135.050921 C160.353854,130.836739 160.314252,126.580941 160.736673,122.410565 C161.370305,115.87902 164.375658,113.182732 170.936391,112.76219 C171.572223,112.676767 172.164053,112.551919 172.758083,112.341648 L172.758083,98.982865 C171.655827,98.8558262 170.892388,98.7309778 170.089348,98.6871713 Z" id="Shape" fill="#FFFFFF"></path>
            </g>
        </g>
    </g>
</svg>

<svg xmlns="http://www.w3.org/2000/svg" width="256" height="256"><g id="Page-1" fill="none" fill-rule="evenodd" stroke="none" stroke-width="1"><g id="swagger-dark" fill-rule="nonzero"><path id="Path" fill="#282828" d="M196 0H60C26.863 0 0 26.863 0 60v136c0 33.137 26.863 60 60 60h136c33.137 0 60-26.863 60-60V60c0-33.137-26.863-60-60-60"/><g id="Group" transform="translate(23.242 23.244)"><path id="Path" fill="#558139" d="M104.757 209.512C46.995 209.512 0 162.52 0 104.756S46.995 0 104.757 0s104.757 46.995 104.757 104.758-46.995 104.754-104.757 104.754"/><path id="Shape" fill="#FFF" d="M64.997 70.331c-.34 3.75.125 7.627-.126 11.418-.297 3.794-.763 7.544-1.524 11.294-1.059 5.35-4.403 9.396-9.014 12.767 8.974 5.815 9.988 14.83 10.58 23.975.297 4.93.17 9.903.678 14.79.38 3.79 1.86 4.761 5.8 4.886 1.607.042 3.255 0 5.121 0v11.714c-11.639 1.98-21.246-1.306-23.618-11.123-.764-3.58-1.272-7.247-1.44-10.956-.254-3.918.168-7.837-.127-11.755-.847-10.746-2.244-14.369-12.569-14.875V99.11A20 20 0 0 1 41 98.731c5.672-.296 8.083-2.024 9.31-7.585a64 64 0 0 0 1.06-9.48c.424-6.109.254-12.344 1.31-18.412 1.481-8.722 6.9-12.936 15.916-13.442 2.539-.127 5.122 0 8.041 0V61.78c-1.227.086-2.286.252-3.386.252-7.322-.254-7.704 2.232-8.254 8.3M79.09 98.056h-.17c-4.233-.21-7.872 3.076-8.085 7.29-.211 4.256 3.089 7.88 7.322 8.089h.508c4.191.254 7.786-2.95 8.041-7.121v-.42c.086-4.256-3.342-7.752-7.616-7.838m26.537 0c-4.105-.127-7.535 3.076-7.66 7.121 0 .254 0 .464.043.716 0 4.593 3.131 7.544 7.872 7.544 4.656 0 7.578-3.034 7.578-7.796-.044-4.593-3.135-7.626-7.833-7.585m27.174 0c-4.317-.085-7.916 3.33-8.042 7.627 0 4.297 3.47 7.752 7.787 7.752h.085c3.895.674 7.83-3.076 8.086-7.583.209-4.173-3.6-7.796-7.916-7.796m37.287.631c-4.91-.21-7.366-1.853-8.591-6.49a47 47 0 0 1-1.397-9.059c-.339-5.647-.297-11.335-.678-16.982-.889-13.398-10.622-18.074-24.76-15.759v11.63c2.242 0 3.978 0 5.714.042 3.005.042 5.291 1.18 5.586 4.51.297 3.034.297 6.109.594 9.186.594 6.111.93 12.303 1.989 18.33.933 4.971 4.36 8.68 8.633 11.713-7.49 5.014-9.691 12.176-10.072 20.225-.211 5.52-.339 11.081-.634 16.645-.255 5.055-2.03 6.698-7.152 6.825-1.44.041-2.836.168-4.444.254v11.924c3.005 0 5.755.169 8.505 0 8.55-.506 13.713-4.635 15.408-12.895a107 107 0 0 0 1.269-13.735c.295-4.214.255-8.47.678-12.64.633-6.532 3.639-9.228 10.2-9.649a9 9 0 0 0 1.821-.42v-13.36c-1.102-.126-1.866-.251-2.669-.295"/></g></g></g></svg>
